X: 10707
T: Downfall Of Paris, The
R: hornpipe
M: 4/4
K: Dmajor
D2 DE D2 DE|D2 EF GFED|E2 EF E2 EF|E2 EF GFED|
F2 FE F2 FE|FAdc BAGF|E2 EF E2 EF|EFGE DCB,A,|
D2 DE D2 DE|D2 EF GFED|E2 EF E2 EF|E2 EF GFED|
FEFG ABAG|FEFG ABAG|F/G/A FD E/F/G EC|D2 DD D2|
A2 AF A2 AF|B2 A2 G2 F2|G2 GE G2 GE|A2 G2 F2 E2|
F2 FE F2 FE|FAdc BAGF|E2 EF E2 EF|EFGE DCB,A,|

